svgs/thin/ice-skate.svg

<svg xmlns="http://www.w3.org/2000/svg" viewBox="0 0 576 512"><!--! Font Awesome Pro 6.6.0 by @fontawesome - https://fontawesome.com License - https://fontawesome.com/license (Commercial License) Copyright 2024 Fonticons, Inc. --><path d="M320 8c0-4.4-3.6-8-8-8s-8 3.6-8 8l0 15.7-2.1 .6L73.3 86.6C48.9 93.3 32 115.4 32 140.7L32 344c0 22.1 17.9 40 40 40l400 0c22.1 0 40-17.9 40-40l0-46c0-33-22.5-61.8-54.5-69.9L320 193.8l0-57.8L320 8zM77.5 102.1L304 40.3l0 87.7-56 0c-4.4 0-8 3.6-8 8s3.6 8 8 8l56 0 0 48-56 0c-4.4 0-8 3.6-8 8s3.6 8 8 8l63 0 142.6 35.6c24.9 6.2 42.4 28.6 42.4 54.3l0 46c0 13.3-10.7 24-24 24L72 368c-13.3 0-24-10.7-24-24l0-203.3c0-18 12.1-33.8 29.5-38.6zM128 424l0-8-16 0 0 8 0 72L8 496c-4.4 0-8 3.6-8 8s3.6 8 8 8l112 0 288 0 96 0c39.8 0 72-32.2 72-72c0-4.4-3.6-8-8-8s-8 3.6-8 8c0 30.9-25.1 56-56 56l-88 0 0-72 0-8-16 0 0 8 0 72-272 0 0-72z"/></svg>

<svg xmlns="http://www.w3.org/2000/svg" viewBox="0 0 576 512"><!--! Font Awesome Pro 6.4.0 by @fontawesome - https://fontawesome.com License - https://fontawesome.com/license (Commercial License) Copyright 2023 Fonticons, Inc. --><path d="M320 8c0-4.4-3.6-8-8-8s-8 3.6-8 8V23.7l-2.1 .6L73.3 86.6C48.9 93.3 32 115.4 32 140.7V344c0 22.1 17.9 40 40 40H472c22.1 0 40-17.9 40-40V298c0-33-22.5-61.8-54.5-69.9L320 193.8V136 8zM77.5 102.1L304 40.3V128H248c-4.4 0-8 3.6-8 8s3.6 8 8 8h56v48H248c-4.4 0-8 3.6-8 8s3.6 8 8 8h63l142.6 35.6c24.9 6.2 42.4 28.6 42.4 54.3v46c0 13.3-10.7 24-24 24H72c-13.3 0-24-10.7-24-24V140.7c0-18 12.1-33.8 29.5-38.6zM128 424v-8H112v8 72H8c-4.4 0-8 3.6-8 8s3.6 8 8 8H120 408h96c39.8 0 72-32.2 72-72c0-4.4-3.6-8-8-8s-8 3.6-8 8c0 30.9-25.1 56-56 56H416V424v-8H400v8 72H128V424z"/></svg>
